images/icons/welbex-logo-mobile.svg

<svg width="129" height="19" viewBox="0 0 129 19" fill="none" xmlns="http://www.w3.org/2000/svg">
<path fill-rule="evenodd" clip-rule="evenodd" d="M2.66909 0L11.052 16.7428L9.99774 18.8261L0.226196 0H2.66909ZM29.8494 0L20.155 18.8261L9.94631 0H12.3121L20.155 14.7346C20.5493 13.9815 20.9951 13.1156 21.4922 12.1366C21.9893 11.1576 22.4907 10.1494 22.9965 9.11186C23.5022 8.07433 24.0037 7.04935 24.5008 6.03692C24.9979 5.02449 25.448 4.09993 25.8508 3.2632C26.2537 2.42647 26.5922 1.71528 26.8665 1.12957C27.1408 0.543864 27.3207 0.167345 27.4065 0H29.8494ZM48.3492 1.83241V0H35.9033V18.8512H48.3492V17.0189H37.8062V10.3669H46.6006V8.53452H37.8062V1.83241H48.3492ZM53.8889 18.8512V0H55.7917V17.0189H66.3347V18.8512H53.8889ZM71.8744 0V18.8512H81.1059C81.243 18.8512 81.5474 18.8053 82.0188 18.7132C82.4902 18.6211 83.0003 18.4161 83.5489 18.0982C83.806 17.9476 84.0759 17.751 84.3588 17.5084C84.6417 17.2656 84.8946 16.9686 85.1174 16.6173C85.3403 16.2658 85.5246 15.8516 85.6703 15.3748C85.816 14.8977 85.8889 14.3414 85.8889 13.7055C85.8889 12.9859 85.7945 12.3583 85.606 11.8228C85.4174 11.2873 85.1774 10.8271 84.886 10.4422C84.5945 10.0574 84.2645 9.74776 83.896 9.51349C83.5273 9.2792 83.1546 9.09513 82.7773 8.96125C83.1546 8.5931 83.4802 8.08689 83.7545 7.44261C84.0288 6.79834 84.1659 6.02437 84.1659 5.12071C84.1659 4.45134 84.0931 3.87401 83.9473 3.38871C83.8016 2.90341 83.6174 2.48505 83.3945 2.13364C83.1716 1.78221 82.9231 1.48936 82.6488 1.25507C82.3745 1.02079 82.1088 0.828351 81.8516 0.677741C81.5602 0.510397 81.2817 0.380708 81.016 0.288668C80.7503 0.196629 80.5102 0.129691 80.2959 0.0878554C80.0816 0.0460193 79.9059 0.020918 79.7687 0.0125507C79.6316 0.00418355 79.5545 0 79.5373 0H71.8744ZM81.0545 17.0189C81.123 17.0189 81.3116 16.9896 81.6202 16.931C81.9287 16.8724 82.2589 16.7344 82.6102 16.5169C82.9616 16.2992 83.2746 15.9688 83.5489 15.5253C83.8231 15.0819 83.9603 14.4753 83.9603 13.7055C83.9603 12.9356 83.8231 12.329 83.5489 11.8856C83.2746 11.4421 82.9616 11.1074 82.6102 10.8815C82.2589 10.6556 81.9245 10.5134 81.6073 10.4548C81.2903 10.3962 81.0974 10.3669 81.0288 10.3669H73.7773V17.0189H81.0545ZM80.0901 8.43412C79.7902 8.50106 79.6059 8.53452 79.5373 8.53452H73.7773V1.83241H79.5373C79.5717 1.83241 79.7344 1.85751 80.0259 1.90771C80.3173 1.95792 80.6345 2.08761 80.9773 2.29679C81.3202 2.50598 81.6331 2.83229 81.9159 3.27575C82.1988 3.71921 82.3402 4.3342 82.3402 5.12071C82.3402 5.8905 82.2074 6.5013 81.9417 6.95312C81.6759 7.40496 81.3759 7.74801 81.0416 7.98229C80.7074 8.21657 80.3902 8.36719 80.0901 8.43412ZM104.851 0V1.83241H94.3085V8.53452H103.103V10.3669H94.3085V17.0189H104.851V18.8512H92.4056V0H104.851ZM119.108 10.8188L125.537 18.8512H128.058L120.574 9.41307L128.058 0H125.537L119.108 8.0325L113.04 0H110.185L117.668 9.41307L110.185 18.8512H113.04L119.108 10.8188Z" fill="#E4E5EA"/>
</svg>

<svg width="129" height="19" fill="none" xmlns="http://www.w3.org/2000/svg"><path fill-rule="evenodd" clip-rule="evenodd" d="M2.67 0l8.382 16.743-1.054 2.083L.226 0H2.67zm27.18 0l-9.695 18.826L9.946 0h2.366l7.843 14.735a236.633 236.633 0 002.841-5.623c.506-1.038 1.008-2.063 1.505-3.075.497-1.013.947-1.937 1.35-2.774.403-.837.741-1.548 1.015-2.133.275-.586.455-.963.54-1.13h2.443zm18.5 1.832V0H35.902v18.851H48.35V17.02H37.806v-6.652h8.795V8.535h-8.795V1.832H48.35zm5.539 17.02V0h1.903v17.019h10.543v1.832H53.889zM71.874 0v18.851h9.232c.137 0 .441-.046.913-.138.471-.092.981-.297 1.53-.615.257-.15.527-.347.81-.59a3.95 3.95 0 00.758-.89c.223-.352.408-.766.553-1.243.146-.477.219-1.034.219-1.67 0-.72-.094-1.347-.283-1.882a5.048 5.048 0 00-.72-1.38 3.808 3.808 0 00-.99-.93 5.543 5.543 0 00-1.119-.552c.378-.368.703-.874.977-1.518.275-.645.412-1.419.412-2.322 0-.67-.073-1.247-.219-1.732a5.042 5.042 0 00-.553-1.255 3.866 3.866 0 00-.745-.879A4.933 4.933 0 0081.016.29a5.377 5.377 0 00-.72-.201A4.201 4.201 0 0079.537 0h-7.663zm9.18 17.019c.069 0 .258-.03.566-.088.309-.059.639-.197.99-.414.352-.218.665-.548.939-.992.274-.443.411-1.05.411-1.82s-.137-1.376-.411-1.82c-.274-.443-.587-.778-.939-1.003-.351-.226-.686-.369-1.003-.427a4.951 4.951 0 00-.578-.088h-7.252v6.652h7.278zm-.964-8.585c-.3.067-.484.1-.553.1h-5.76V1.833h5.76c.035 0 .197.026.489.076.291.05.609.18.951.389.343.209.656.535.939.979.283.443.424 1.058.424 1.845 0 .77-.133 1.38-.398 1.832-.266.452-.566.795-.9 1.03-.335.234-.652.384-.952.451zM104.851 0v1.832H94.308v6.703h8.795v1.832h-8.794v6.652h10.542v1.832H92.406V0h12.445zm14.257 10.819l6.429 8.032h2.521l-7.484-9.438L128.058 0h-2.521l-6.429 8.033L113.04 0h-2.855l7.483 9.413-7.483 9.438h2.855l6.068-8.032z" fill="#E4E5EA"/></svg>
